svg/set/2XM/WM.svg

<?xml version="1.0" encoding="UTF-8"?>
<svg id="Layer_2" data-name="Layer 2" xmlns="http://www.w3.org/2000/svg" viewBox="0 0 268.08 161.2">
  <defs>
    <style>
      .cls-1 {
        stroke-width: 0px;
      }
    </style>
  </defs>
  <g id="svg8">
    <path id="path913" class="cls-1" d="M70.79,6.21C23.98,10.28,1.5,51.78,0,67.48c24.7-22.7,47.81-18.71,78.52-18.88l21.8-22.83c-13.92,3.94-38.19-1.33-29.52-19.56ZM197.29,6.21c8.67,18.23-15.6,23.5-29.52,19.56l21.8,22.83c30.71.17,53.81-3.82,78.52,18.88-1.5-15.71-23.98-57.2-70.79-61.27ZM0,93.71c1.5,15.71,23.98,57.2,70.79,61.27-8.67-18.23,15.6-23.5,29.52-19.56l-21.8-22.83c-30.71-.17-53.81,3.82-78.52-18.88ZM268.08,93.71c-24.7,22.7-47.81,18.71-78.52,18.88l-21.8,22.83c13.92-3.94,38.19,1.33,29.52,19.56,46.81-4.07,69.29-45.56,70.79-61.27Z"/>
    <path id="path867" class="cls-1" d="M134.04,0L63.82,73.71l-15.11,6.89,15.11,6.89,70.22,73.71,70.22-73.71,15.11-6.89-15.11-6.89L134.04,0ZM134.04,39l41.56,41.6-41.56,41.6-41.56-41.6,41.56-41.6Z"/>
  </g>
</svg>

<?xml version="1.0" encoding="UTF-8" standalone="no"?>
<svg
   id="Layer_2"
   data-name="Layer 2"
   viewBox="0 0 268.10002 161.2"
   version="1.1"
   width="268.10001"
   height="161.2"
   xmlns="http://www.w3.org/2000/svg"
   xmlns:svg="http://www.w3.org/2000/svg">
  <defs
     id="defs1">
    <style
       id="style1">
      .cls-1 {
        stroke-width: 0px;
      }
    </style>
  </defs>
  <g
     id="svg8"
     transform="translate(0.01)">
    <path
       id="path913"
       class="cls-1"
       d="M 70.79,6.21 C 23.98,10.28 1.5,51.78 0,67.48 24.7,44.78 47.81,48.77 78.52,48.6 l 21.8,-22.83 C 86.4,29.71 62.13,24.44 70.8,6.21 Z m 126.5,0 c 8.67,18.23 -15.6,23.5 -29.52,19.56 l 21.8,22.83 c 30.71,0.17 53.81,-3.82 78.52,18.88 C 266.59,51.77 244.11,10.28 197.3,6.21 Z M 0,93.71 c 1.5,15.71 23.98,57.2 70.79,61.27 -8.67,-18.23 15.6,-23.5 29.52,-19.56 L 78.51,112.59 C 47.8,112.42 24.7,116.41 -0.01,93.71 Z m 268.08,0 c -24.7,22.7 -47.81,18.71 -78.52,18.88 l -21.8,22.83 c 13.92,-3.94 38.19,1.33 29.52,19.56 46.81,-4.07 69.29,-45.56 70.79,-61.27 z" />
    <path
       id="path867"
       class="cls-1"
       d="m 134.04,0 -70.22,73.71 -15.11,6.89 15.11,6.89 70.22,73.71 70.22,-73.71 15.11,-6.89 -15.11,-6.89 z m 0,39 41.56,41.6 -41.56,41.6 -41.56,-41.6 z" />
  </g>
</svg>
